icon-themes/breeze_svg/cmd/32/thesaurus.svg

<svg viewBox="0 0 32 32" xmlns="http://www.w3.org/2000/svg"><path d="m8.1660156 4-4.1738281 12h1.0078125l1.4960938-4h5.2070312l1.490234 4h1.144532l-4.230469-12zm.9394532 1.0292969 2.2246092 5.9707031h-4.4589842zm9.8945312 10.9707031v12h1 5a3.5 3.5 0 0 0 3.5-3.5 3.5 3.5 0 0 0 -2.433594-3.330078 3 3 0 0 0 .933594-2.169922 3 3 0 0 0 -3-3h-4zm1 1h4a2 2 0 0 1 2 2 2 2 0 0 1 -2 2h-4zm0 5h5a2.5 2.5 0 0 1 2.5 2.5 2.5 2.5 0 0 1 -2.5 2.5h-5z" fill="#4d4d4d"/><path d="m16.449219 5.921875c-1.238683-.0499487-2.475856.1308586-3.648438.5332031l.324219.9472657 1.625 4.7285152.945312-.324218-1.603515-4.6718754c4.117424-.9140373 8.317336 1.153849 10.103515 4.9746094.380231.853017.639706 2.04508.738282 2.890625h1.015625c-.183593-1.10334-.536678-2.445213-.798828-3.222656-1.562082-3.4382152-4.927814-5.7031904-8.701172-5.855469zm-10.3984378 11.078125c.5135354 5.109613 4.8138648 8.999663 9.9492188 9 .333972-.000218.667724-.017171 1-.050781v-.095703h.003906l.003906-1.001954h-.007812v-4.851562h-1v4.898438c-3.821586-.01851-7.2147684-2.448477-8.4628906-6.060547-.1815876-.533498-.3793-1.333494-.4707032-1.837891z" fill="#1d99f3"/></svg>

<svg xmlns="http://www.w3.org/2000/svg" viewBox="0 0 32 32">
 <path 
     style="fill:#4d4d4d" 
     d="M 8.1660156 4 L 3.9921875 16 L 5 16 L 6.4960938 12 L 11.703125 12 L 13.193359 16 L 14.337891 16 L 10.107422 4 L 8.1660156 4 z M 9.1054688 5.0292969 L 11.330078 11 L 6.8710938 11 L 9.1054688 5.0292969 z M 19 16 L 19 28 L 20 28 L 25 28 A 3.5 3.5 0 0 0 28.5 24.5 A 3.5 3.5 0 0 0 26.066406 21.169922 A 3 3 0 0 0 27 19 A 3 3 0 0 0 24 16 L 20 16 L 19 16 z M 20 17 L 24 17 A 2 2 0 0 1 26 19 A 2 2 0 0 1 24 21 L 20 21 L 20 17 z M 20 22 L 25 22 A 2.5 2.5 0 0 1 27.5 24.5 A 2.5 2.5 0 0 1 25 27 L 20 27 L 20 22 z "
     />
 <path 
     style="fill:#1d99f3" 
     d="M 16.449219 5.921875 C 15.210536 5.8719263 13.973363 6.0527336 12.800781 6.4550781 L 13.125 7.4023438 L 14.75 12.130859 L 15.695312 11.806641 L 14.091797 7.1347656 C 18.209221 6.2207283 22.409133 8.2886146 24.195312 12.109375 C 24.575543 12.962392 24.835018 14.154455 24.933594 15 L 25.949219 15 C 25.765626 13.89666 25.412541 12.554787 25.150391 11.777344 C 23.588309 8.3391288 20.222577 6.0741536 16.449219 5.921875 z M 6.0507812 17 C 6.5643166 22.109613 10.864646 25.999663 16 26 C 16.333972 25.999782 16.667724 25.982829 17 25.949219 L 17 25.853516 L 17.003906 25.853516 L 17.007812 24.851562 L 17 24.851562 L 17 20 L 16 20 L 16 24.898438 C 12.178414 24.879928 8.7852316 22.449961 7.5371094 18.837891 C 7.3555218 18.304393 7.1578094 17.504397 7.0664062 17 L 6.0507812 17 z "
     />
</svg>
